resources/svg/file-list-2-fill.svg

<svg fill="currentColor" viewBox="0 0 24 24" xmlns="http://www.w3.org/2000/svg"><path d="M20 22H4C3.44772 22 3 21.5523 3 21V3C3 2.44772 3.44772 2 4 2H20C20.5523 2 21 2.44772 21 3V21C21 21.5523 20.5523 22 20 22ZM8 7V9H16V7H8ZM8 11V13H16V11H8ZM8 15V17H13V15H8Z"/></svg>

<svg xmlns="http://www.w3.org/2000/svg" viewBox="0 0 24 24" fill="currentColor">
    <g>
        <path fill="none" d="M0 0h24v24H0z"/>
        <path d="M20 22H4a1 1 0 0 1-1-1V3a1 1 0 0 1 1-1h16a1 1 0 0 1 1 1v18a1 1 0 0 1-1 1zM8 7v2h8V7H8zm0 4v2h8v-2H8zm0 4v2h5v-2H8z"/>
    </g>
</svg>
